assets/images/payments/stripe-dark.svg

<svg width="100" height="60" viewBox="0 0 100 60" version="1.1" xmlns="http://www.w3.org/2000/svg" xmlns:xlink="http://www.w3.org/1999/xlink"><title>Stripe-dark</title><desc>Created with Sketch.</desc><g id="Dark-Payment-badges" stroke="none" stroke-width="1" fill="none" fill-rule="evenodd" transform="translate(-290.000000, -589.000000)"><g id="Stripe-dark" transform="translate(290.000000, 589.000000)"><rect id="Rectangle" fill="#008CDD" x="0" y="0" width="100" height="60" rx="4"/><path d="M25.4960774,28.7000691 C24.1610199,28.2021968 23.429365,27.8149628 23.429365,27.2064521 C23.429365,26.6900479 23.8500597,26.3950585 24.599958,26.3950585 C25.9716394,26.3950585 27.3798075,26.9298564 28.3491748,27.4091968 L28.8978473,23.9979415 C28.1297058,23.6291011 26.5567987,23.0205904 24.3804889,23.0205904 C22.8442058,23.0205904 21.5638783,23.4262181 20.6495155,24.1822926 C19.6983916,24.9751543 19.2045863,26.1184628 19.2045863,27.5014415 C19.2045863,30.0091968 20.7226261,31.0787926 23.1916527,31.9822926 C24.7828031,32.5538777 25.3132323,32.9596436 25.3132323,33.5865479 C25.3132323,34.1950585 24.8010465,34.545367 23.8683031,34.545367 C22.7160907,34.545367 20.8141173,33.9737819 19.5704137,33.2362394 L19.0217412,36.6844202 C20.0824624,37.2929309 22.0576836,37.9198351 24.1061527,37.9198351 C25.7337898,37.9198351 27.0872279,37.5326011 28.0017279,36.7950585 C29.0258252,35.9836649 29.5562544,34.7851755 29.5562544,33.2362394 C29.5562544,30.6730266 28.0017279,29.6035691 25.4960774,28.7000691 L25.4960774,28.7000691 Z M38.4882323,26.6900479 L39.0369049,23.2971862 L36.1403252,23.2971862 L36.1403252,19.1783989 L32.2458473,19.8245266 L31.683458,23.2971862 L30.3136969,23.5212287 L29.8009624,26.6900479 L31.6778341,26.6900479 L31.6778341,33.3468777 C31.6778341,35.0801649 32.1167721,36.2787926 33.0128916,37.0163351 C33.7627898,37.6248457 34.8417544,37.9198351 36.3597942,37.9198351 C37.53025,37.9198351 38.2435243,37.7170904 38.7373296,37.5879202 L38.7373296,33.9921755 C38.4629934,34.0660266 37.8412102,34.1950585 37.4205155,34.1950585 C36.524396,34.1950585 36.1403252,33.7341117 36.1403252,32.6830479 L36.1403252,26.6900479 L38.4882323,26.6900479 L38.4882323,26.6900479 Z M47.1868872,23.0990053 C45.9066969,23.0990053 44.8824624,23.7766649 44.4801482,24.9936862 L44.2058119,23.2971862 L40.2371261,23.2971862 L40.2371261,37.6432394 L44.7727279,37.6432394 L44.7727279,28.3312287 C45.339781,27.6304734 46.1444093,27.3771117 47.2417544,27.3771117 C47.479604,27.3771117 47.7355597,27.3771117 48.0465199,27.4324309 L48.0465199,23.2096436 C47.7355597,23.1359309 47.4612235,23.0990053 47.1868872,23.0990053 L47.1868872,23.0990053 Z M51.4300465,21.8772819 C52.7468606,21.8772819 53.8075819,20.7894309 53.8075819,19.4617713 C53.8075819,18.1155798 52.7468606,17.0461223 51.4300465,17.0461223 C50.0948518,17.0461223 49.0341305,18.1155798 49.0341305,19.4617713 C49.0341305,20.7894309 50.0948518,21.8772819 51.4300465,21.8772819 L51.4300465,21.8772819 Z M49.143865,23.2971862 L53.6978473,23.2971862 L53.6978473,37.6432394 L49.143865,37.6432394 L49.143865,23.2971862 Z M66.6030376,24.5879202 C65.7982721,23.5368564 64.6826836,23.0205904 63.256135,23.0205904 C61.9393208,23.0205904 60.7871084,23.5737819 59.7080066,24.735484 L59.4702942,23.2971862 L55.4832279,23.2971862 L55.4832279,42.9538777 L60.0189668,42.1979415 L60.0189668,37.5879202 C60.7138606,37.8091968 61.427135,37.9198351 62.0672987,37.9198351 C63.2012677,37.9198351 64.8472854,37.6248457 66.1274757,36.2234734 C67.3527987,34.8772819 67.974719,32.7936862 67.974719,30.0461223 C67.974719,27.6120798 67.5174004,25.7681543 66.6030376,24.5879202 L66.6030376,24.5879202 Z M62.8354403,33.438984 C62.4696128,34.1397394 61.9026969,34.5085798 61.2442898,34.5085798 C60.7871084,34.5085798 60.3846571,34.4163351 60.0189668,34.231984 L60.0189668,27.4091968 C60.7871084,26.5979415 61.4820022,26.5056968 61.7380951,26.5056968 C62.8903075,26.5056968 63.4572235,27.7596436 63.4572235,30.2120798 C63.4572235,31.6134521 63.256135,32.7014415 62.8354403,33.438984 L62.8354403,33.438984 Z M80.9782588,30.3411117 C80.9782588,28.054633 80.4844535,26.2474947 79.5150863,24.9751543 C78.5274757,23.6844202 77.0460597,23.0205904 75.1623296,23.0205904 C71.3032412,23.0205904 68.9074624,25.8971862 68.9074624,30.5070691 C68.9074624,33.0886755 69.5474889,35.0248457 70.8094358,36.2602606 C71.9434049,37.3666436 73.5711792,37.9198351 75.6743783,37.9198351 C77.6129757,37.9198351 79.4053518,37.4588883 80.5393208,36.7028138 L80.0455155,33.5681543 C78.9297898,34.1766649 77.6313562,34.5085798 76.1681836,34.5085798 C75.2903075,34.5085798 74.6867677,34.3240904 74.2478296,33.9368564 C73.7722677,33.5312287 73.4979314,32.8673989 73.4065774,31.9269734 L80.9233916,31.9269734 C80.941635,31.7056968 80.9782588,30.6730266 80.9782588,30.3411117 L80.9782588,30.3411117 Z M73.3699535,29.1240904 C73.4979314,27.0772819 74.046604,26.1184628 75.0890819,26.1184628 C76.1133164,26.1184628 76.6437456,27.0958138 76.7168562,29.1240904 L73.3699535,29.1240904 L73.3699535,29.1240904 Z" id="Fill-1" fill="#FFFFFE"/></g></g></svg>

<svg width="100" height="60" xmlns="http://www.w3.org/2000/svg"><g fill="none" fill-rule="evenodd"><rect fill="#008CDD" width="100" height="60" rx="4"/><path d="M25.496 28.7c-1.335-.498-2.067-.885-2.067-1.494 0-.516.421-.81 1.171-.81 1.372 0 2.78.534 3.75 1.013l.548-3.411c-.768-.369-2.341-.977-4.518-.977-1.536 0-2.816.405-3.73 1.161-.952.793-1.445 1.936-1.445 3.32 0 2.507 1.518 3.577 3.987 4.48 1.59.572 2.121.978 2.121 1.605 0 .608-.512.958-1.445.958-1.152 0-3.054-.571-4.298-1.309l-.548 3.448c1.06.609 3.036 1.236 5.084 1.236 1.628 0 2.981-.387 3.896-1.125 1.024-.811 1.554-2.01 1.554-3.559 0-2.563-1.554-3.632-4.06-4.536zm12.992-2.01l.549-3.393H36.14v-4.119l-3.894.647-.563 3.472-1.37.224-.512 3.169h1.877v6.657c0 1.733.439 2.932 1.335 3.67.75.608 1.829.903 3.347.903 1.17 0 1.884-.203 2.377-.332v-3.596c-.274.074-.896.203-1.316.203-.897 0-1.28-.46-1.28-1.512V26.69h2.347zm8.699-3.591c-1.28 0-2.305.678-2.707 1.895l-.274-1.697h-3.969v14.346h4.536v-9.312c.567-.7 1.371-.954 2.469-.954.238 0 .494 0 .805.055V23.21a3.666 3.666 0 00-.86-.111zm4.243-1.222c1.317 0 2.378-1.088 2.378-2.415 0-1.346-1.061-2.416-2.378-2.416a2.39 2.39 0 00-2.396 2.416 2.402 2.402 0 002.396 2.415zm-2.286 1.42h4.554v14.346h-4.554V23.297zm17.459 1.29c-.805-1.05-1.92-1.566-3.347-1.566-1.317 0-2.469.553-3.548 1.714l-.238-1.438h-3.987v19.657l4.536-.756v-4.61a6.878 6.878 0 002.048.332c1.134 0 2.78-.295 4.06-1.697 1.226-1.346 1.848-3.43 1.848-6.177 0-2.434-.458-4.278-1.372-5.458zm-3.768 8.852c-.365.7-.932 1.07-1.59 1.07-.458 0-.86-.093-1.226-.277v-6.823c.768-.811 1.463-.903 1.72-.903 1.151 0 1.718 1.254 1.718 3.706 0 1.401-.2 2.49-.622 3.227zm18.143-3.098c0-2.286-.494-4.094-1.463-5.366-.988-1.29-2.469-1.954-4.353-1.954-3.859 0-6.255 2.876-6.255 7.486 0 2.582.64 4.518 1.902 5.753 1.134 1.107 2.762 1.66 4.865 1.66 1.939 0 3.731-.461 4.865-1.217l-.493-3.135c-1.116.609-2.415.94-3.878.94-.878 0-1.481-.184-1.92-.571-.476-.406-.75-1.07-.841-2.01h7.516c.019-.221.055-1.254.055-1.586zm-7.608-1.217c.128-2.047.677-3.006 1.72-3.006 1.023 0 1.554.978 1.627 3.006H73.37z" fill="#FFFFFE"/></g></svg>
